X: 10473
T: CAPTAIN KEELER'S REEL
R: reel
B: K\"ohler's Violin Repository, v.1, 1885 p.47 #3
F: http://www.archive.org/details/klersviolinrepos01edin
Z: 2011 John Chambers <jc:trillian.mit.edu>
M: C|
L: 1/8
K: Bb
|:\
vB2(d/c/B) fBbB | B2(d/c/B) AFcA | B2(d/c/B) fBbB |[1 cAFA BGGA :|[2 cAFA BGGB ||
(vDG)(BG) dGBG | (DG)(BG) AFcA | (DG)(BG) dGBG | cAFA BGGB |
(DG)(BG) dGBG | (DG)(BG) AFcA | Bcd=e fefd | cAFA B"_D.C."GGA "_Fine."|]

%%sep 2 1 500

